X: 141
T: No_66_I_Am_Small.krn
%%abc-version 2.0
%%abcx-abcm2ps-target-version 5.9.1 (29 Sep 2008)
%%abc-creator hum2abc beta
%%abcx-conversion-date 2020/08/10 18:54:57
%%gracespace 0 6 6
%%humdrum-veritas 68007803
%%humdrum-veritas-data 780704720
%%linebreak <none>
%%barnumbers 0
L: 1/8
M: 2/4
%%staves {1 2}
V: 1 clef=bass
V: 2 clef=bass
K: Ab
[V:1] E/ [I:setbarnb 1]| 
[V:2] z/ | 
[V:1] E2C2 ||  
[V:2] (3!accent!G,, z G,, (3!accent!G,, z G,, ||  
[V:1] [M:3/4]E2E2-E3/E/ ||  
[V:2] [M:3/4]z6 ||  
[V:1] [M:2/4]C>C A,3/C/ | 
[V:2] [M:2/4]z4 | 
[V:1] A,2A,2- | 
[V:2] z4 | 
[V:1] A,2A,3/E/ | 
[V:2] z4 | 
[V:1] E>E C3/E/ ||  
[V:2] z4 ||  
[V:1] [M:3/4]E2E2-E3/E/ ||  
[V:2] [M:3/4]z6 ||  
[V:1] [M:2/4]C>C A,3/C/ | 
[V:2] [M:2/4]z4 | 
[V:1] A,2A,2- | 
[V:2] z4 | 
[V:1] A,2-A,3/A,/ | 
[V:2] z4 | 
[V:1] F,F, A,/A,3/- | 
[V:2] z4 | 
[V:1] A,2F,3/F,/ | 
[V:2] z4 | 
[V:1] E,2E,2- | 
[V:2] z4 | 
[V:1] E,2-E,3/A,/ | 
[V:2] z4 | 
[V:1] A,>A, E,3/F,/ ||  
[V:2] z4 ||  
[V:1] [M:3/4]E,2E,4 ||  
[V:2] [M:3/4]z6 ||  
[V:1] [M:2/4](3E,C,-C, (3C,B,,-B,, | 
[V:2] [M:2/4]z4 | 
[V:1] A,,>A,,A,,2- | 
[V:2] z4 | 
[V:1] A,,4 |]  
[V:2] z4 |]  


